Easy-Camper/img/priority/02.svg

<svg width="32" height="32" viewBox="0 0 32 32" fill="none" xmlns="http://www.w3.org/2000/svg">
<path fill-rule="evenodd" clip-rule="evenodd" d="M17.4933 21.3333C18.4133 21.3333 19.0266 20.4133 18.6933 19.5733L13.0266 5.16C12.7466 4.45333 12.08 4 11.3333 4C10.5866 4 9.91997 4.45333 9.63997 5.16L3.97331 19.5733C3.63997 20.4133 4.26664 21.3333 5.17331 21.3333C5.70664 21.3333 6.18664 21 6.38664 20.4933L7.55997 17.3333H15.08L16.28 20.5067C16.48 21 16.96 21.3333 17.4933 21.3333ZM8.57331 14.6667L11.3333 7.30667L14.0933 14.6667H8.57331ZM27.8533 16.3867L18 26.24L14.04 22.28C13.52 21.76 12.68 21.76 12.16 22.28C11.64 22.8 11.64 23.64 12.16 24.16L17.0666 29.0667C17.5866 29.5867 18.4266 29.5867 18.9466 29.0667L29.72 18.28C30.24 17.76 30.24 16.92 29.72 16.4C29.2133 15.88 28.36 15.88 27.8533 16.3867Z" fill="#22262A"/>
</svg>

<svg width="32" height="32" fill="none" xmlns="http://www.w3.org/2000/svg"><path fill-rule="evenodd" clip-rule="evenodd" d="M17.493 21.333c.92 0 1.534-.92 1.2-1.76L13.027 5.16a1.817 1.817 0 00-3.387 0L3.973 19.573a1.29 1.29 0 001.2 1.76 1.31 1.31 0 001.214-.84l1.173-3.16h7.52l1.2 3.174c.2.493.68.826 1.213.826zm-8.92-6.666l2.76-7.36 2.76 7.36h-5.52zm19.28 1.72L18 26.24l-3.96-3.96c-.52-.52-1.36-.52-1.88 0-.52.52-.52 1.36 0 1.88l4.907 4.907c.52.52 1.36.52 1.88 0L29.72 18.28c.52-.52.52-1.36 0-1.88a1.324 1.324 0 00-1.867-.013z" fill="#22262A"/></svg>
